assets/img/logo_sign_in.svg

<?xml version="1.0" encoding="UTF-8"?>
<svg width="191px" height="27px" viewBox="0 0 191 27" version="1.1" xmlns="http://www.w3.org/2000/svg" xmlns:xlink="http://www.w3.org/1999/xlink">
    <!-- Generator: Sketch 64 (93537) - https://sketch.com -->
    <title>logo</title>
    <desc>Created with Sketch.</desc>
    <g id="Page-1" stroke="none" stroke-width="1" fill="none" fill-rule="evenodd">
        <g id="logo" fill-rule="nonzero">
            <rect id="Rectangle-path" fill="#FFFFFF" x="5.4535" y="4.888" width="11.18" height="14.339"></rect>
            <polygon id="Shape" fill="#112E51" points="35.36 3.848 31.356 3.848 31.356 21.5995 42.9715 21.5995 42.9715 18.096 35.36 18.096"></polygon>
            <path d="M55.354,3.718 C49.9265,3.718 45.8185,7.5465 45.8185,12.7205 C45.8185,17.8945 49.9265,21.775 55.354,21.775 C60.7815,21.775 64.8895,17.875 64.8895,12.7205 C64.8895,7.566 60.7815,3.718 55.354,3.718 L55.354,3.718 Z M55.406,18.2715 C52.3607392,18.2500315 49.9084895,15.7657832 49.9265,12.7205 C49.9143289,11.2611643 50.4868832,9.85769194 51.5163799,8.82331027 C52.5458767,7.78892861 53.946623,7.20973714 55.406,7.21496445 C58.460963,7.21496445 60.9374997,9.69153705 60.9374997,12.7465 C60.9374997,15.801463 58.460963,18.278 55.406,18.278 L55.406,18.2715 Z" id="Shape" fill="#112E51"></path>
            <path d="M78.3835,7.1955 C80.1894216,7.23206282 81.9201708,7.92528659 83.252,9.1455 L85.5075,6.279 C83.5011307,4.60359453 80.9714015,3.68369303 78.3575,3.679 C72.826,3.679 68.6725,7.579 68.6725,12.6815 C68.6725,17.784 72.8,21.775 78.156,21.775 C80.7276073,21.7380231 83.2317941,20.9469894 85.358,19.5 L85.358,11.8365 L78.7865,11.8365 L78.7865,14.95 L81.9,14.95 L81.9,17.29 C80.8302111,17.8679715 79.6436829,18.196822 78.429,18.252 C76.3762825,18.3821527 74.4205241,17.3639299 73.3499169,15.607687 C72.2793097,13.8514442 72.2702357,11.6465206 73.3263525,9.88152581 C74.3824685,8.11653102 76.3297808,7.08224621 78.3835,7.1955 L78.3835,7.1955 Z" id="Shape" fill="#112E51"></path>
            <rect id="Rectangle-path" fill="#112E51" x="91.1365" y="3.848" width="4.0105" height="17.7515"></rect>
            <polygon id="Shape" fill="#112E51" points="113.581 15.2555 104.9555 3.848 101.3025 3.848 101.3025 21.5995 105.1375 21.5995 105.1375 10.2115 113.7305 21.5995 117.3835 21.5995 117.3835 3.848 113.581 3.848"></polygon>
            <path d="M124.9365,17.1145 C124.323462,17.0992474 123.731797,17.340149 123.303766,17.7792819 C122.875734,18.2184148 122.650059,18.8160532 122.681,19.4285 C122.681,20.2343126 123.110896,20.9789142 123.80875,21.3818205 C124.506604,21.7847269 125.366396,21.7847269 126.06425,21.3818205 C126.762104,20.9789142 127.192,20.2343126 127.192,19.4285 C127.228984,18.8144549 127.005293,18.2132858 126.575914,17.7727709 C126.146536,17.3322558 125.551291,17.0932481 124.9365,17.1145 L124.9365,17.1145 Z" id="Shape" fill="#112E51"></path>
            <path d="M139.984,7.1955 C141.789922,7.23206282 143.520671,7.92528659 144.8525,9.1455 L147.108,6.279 C145.101631,4.60359453 142.571902,3.68369303 139.958,3.679 C134.4265,3.679 130.273,7.579 130.273,12.6815 C130.273,17.784 134.381,21.775 139.75,21.775 C142.323829,21.7392921 144.830453,20.9482023 146.9585,19.5 L146.9585,11.8365 L140.4,11.8365 L140.4,14.95 L143.5005,14.95 L143.5005,17.29 C142.430711,17.8679715 141.244183,18.196822 140.0295,18.252 C137.976782,18.3821527 136.021024,17.3639299 134.950417,15.607687 C133.87981,13.8514442 133.870736,11.6465206 134.926852,9.88152581 C135.982969,8.11653102 137.930281,7.08224621 139.984,7.1955 L139.984,7.1955 Z" id="Shape" fill="#112E51"></path>
            <path d="M160.9335,3.718 C155.506,3.718 151.398,7.5465 151.398,12.7205 C151.398,17.8945 155.506,21.775 160.9335,21.775 C166.361,21.775 170.469,17.875 170.469,12.7205 C170.469,7.566 166.361,3.718 160.9335,3.718 L160.9335,3.718 Z M160.9855,18.2715 C157.940239,18.2500315 155.48799,15.7657832 155.506,12.7205 C155.493829,11.2611643 156.066383,9.85769194 157.09588,8.82331027 C158.125376,7.78892861 159.526123,7.20973714 160.9855,7.21496445 C164.040463,7.21496445 166.516999,9.69153705 166.516999,12.7465 C166.516999,15.801463 164.040463,18.278 160.9855,18.278 L160.9855,18.2715 Z" id="Shape" fill="#112E51"></path>
            <polygon id="Shape" fill="#112E51" points="186.3485 3.848 181.48 17.238 176.6375 3.848 172.328 3.848 179.3025 21.5995 183.4365 21.5995 190.4825 3.848"></polygon>
            <path d="M8.0145,16.9 L8.957,11.518 C7.99070733,10.7691968 7.60873978,9.48806255 8.00720758,8.33235878 C8.40567539,7.17665507 9.49604604,6.403159 10.7185,6.409 L10.7185,0.4355 L3.4385,0.4355 C2.69032428,0.4355 1.97279189,0.732711649 1.44375177,1.26175177 C0.914711648,1.79079189 0.617440403,2.50832428 0.617440403,3.2565 L0.617440403,17.0885 C0.615316894,17.3494624 0.673138472,17.6074356 0.7865,17.8425 C1.3975,19.0775 3.809,23.0425 10.712,26.091 L10.712,17.121 C9.80816636,17.1246488 8.90568731,17.0507108 8.0145,16.9 L8.0145,16.9 Z" id="Shape" fill="#E21D3E"></path>
            <path d="M17.979,0.415992431 L10.712,0.415992431 L10.712,6.3895 L10.712,6.3895 C11.9288511,6.38320424 13.0158096,7.14928195 13.419043,8.29739742 C13.8222765,9.44551283 13.4530525,10.7230212 12.4995,11.479 L13.442,16.887 C12.5405004,17.0439647 11.6270616,17.1222594 10.712,17.121 L10.712,26.078 C17.6085,23.0425 20.0265,19.0645 20.6375,17.8295 C20.7508615,17.5944356 20.8086831,17.3364624 20.8065596,17.0755 L20.8065596,3.25 C20.8099654,2.49844658 20.5133908,1.77657967 19.9825671,1.24453571 C19.4517434,0.712491748 18.7305594,0.414260302 17.979,0.415992431 L17.979,0.415992431 Z" id="Shape" fill="#B51E23"></path>
        </g>
    </g>
</svg>

<svg width="191" height="27" xmlns="http://www.w3.org/2000/svg"><g fill="none"><path fill="#FFF" d="M5.454 4.888h11.18v14.339H5.454z"/><path fill="#112E51" d="M35.36 3.848h-4.004V21.6h11.615v-3.504H35.36zm19.994-.13c-5.428 0-9.535 3.829-9.535 9.002 0 5.175 4.107 9.055 9.535 9.055s9.535-3.9 9.535-9.054c0-5.155-4.107-9.003-9.535-9.003zm.052 14.553a5.518 5.518 0 01-5.48-5.55 5.46 5.46 0 015.48-5.506 5.532 5.532 0 010 11.063v-.006zM78.383 7.196a7.43 7.43 0 014.869 1.95l2.255-2.867a11.186 11.186 0 00-7.15-2.6c-5.531 0-9.684 3.9-9.684 9.002 0 5.103 4.127 9.094 9.483 9.094a13.136 13.136 0 007.202-2.275v-7.664h-6.572v3.114H81.9v2.34a8.073 8.073 0 01-3.471.962 5.538 5.538 0 11-.046-11.056zm12.753-3.348h4.011V21.6h-4.011zm22.445 11.407l-8.626-11.407h-3.653V21.6h3.835V10.21l8.594 11.388h3.653V3.848h-3.803zm11.355 1.859a2.203 2.203 0 00-2.255 2.314 2.256 2.256 0 004.511 0 2.184 2.184 0 00-2.255-2.314zm15.048-9.918a7.43 7.43 0 014.868 1.95l2.256-2.867a11.186 11.186 0 00-7.15-2.6c-5.531 0-9.685 3.9-9.685 9.002 0 5.103 4.108 9.094 9.477 9.094a13.137 13.137 0 007.208-2.275v-7.664H140.4v3.114h3.1v2.34a8.073 8.073 0 01-3.47.962 5.538 5.538 0 11-.046-11.056zm20.95-3.478c-5.428 0-9.536 3.829-9.536 9.002 0 5.175 4.108 9.055 9.536 9.055 5.427 0 9.535-3.9 9.535-9.054 0-5.155-4.108-9.003-9.535-9.003zm.052 14.553a5.519 5.519 0 01-5.48-5.55 5.46 5.46 0 015.48-5.506 5.532 5.532 0 010 11.063v-.006zm25.363-14.423l-4.869 13.39-4.843-13.39h-4.309l6.975 17.752h4.133l7.046-17.752z"/><path d="M8.014 16.9l.943-5.382a2.854 2.854 0 011.761-5.109V.436h-7.28a2.821 2.821 0 00-2.82 2.82V17.09c-.003.26.055.518.168.754.611 1.235 3.023 5.2 9.926 8.248v-8.97c-.904.004-1.806-.07-2.697-.221z" fill="#E21D3E"/><path d="M17.979.416h-7.267v5.973a2.853 2.853 0 011.787 5.09l.943 5.408c-.901.157-1.815.235-2.73.234v8.957c6.896-3.035 9.314-7.014 9.925-8.248.114-.236.172-.494.17-.754V3.25A2.821 2.821 0 0017.979.416z" fill="#B51E23"/></g></svg>
